X:329
T:Mastom Mastom
T:I Am Drunk, I Am Drunk
Z:Jack Campin, http://www.campin.me.uk/
F:Jack Campin's Nine-Note Tunebook
% last edit 03-02-2013
G:Persian Sufi folksong
M:2/4
L:1/8
Q:1/4=140
K:DMin
zA AA|cc (B/A/)G|cc (B/A/)G|
zA GF|G2  A2    |zA  GF    |D2 D2:|
FE FE|zF  G2    |FE  FG    |FE D2:|

